public/img/filter/vegetarian.svg

<svg width="100" height="100" viewBox="0 0 100 100" fill="none" xmlns="http://www.w3.org/2000/svg">
<rect x="1" y="1" width="98" height="98" rx="14" stroke="#234cad" stroke-width="2"/>
<path d="M57.8541 60.8496C58.517 60.7238 58.9975 60.1455 58.9998 59.4708V57.3011C58.9998 57.2858 58.9921 57.2731 58.9912 57.2581C58.987 57.2016 58.9756 57.1459 58.9577 57.0922C58.9377 57.0023 58.8926 56.9198 58.8276 56.8546C58.8129 56.8372 58.8032 56.8165 58.7869 56.8007C58.7267 56.7412 58.6562 56.6933 58.5788 56.6593L58.5739 56.6572L58.5708 56.6558L41.8676 49.4015C41.0126 49.043 40.0235 49.29 39.4375 50.0085C38.7628 50.8071 37.6995 51.1635 36.6798 50.9327C35.6602 50.7019 34.8539 49.9226 34.5888 48.9114C34.5004 48.5636 34.478 48.2024 34.5225 47.8464C34.6477 46.9357 34.1503 46.0533 33.3064 45.6889L29.9349 44.226C29.2816 43.9388 28.5406 43.9248 27.877 44.187C25.1989 45.2316 22.8195 46.9197 20.9487 49.1021C19.0699 51.3009 17.7519 53.9223 17.1076 56.7419L17.0167 57.148C17.0157 57.1708 17.0157 57.1938 17.0171 57.2166C17.0095 57.2443 17.0039 57.2726 17 57.301V74.801C17.0016 76.3467 18.2543 77.5993 19.8 77.6009H38.77C39.4425 77.6008 40.0203 77.1237 40.1478 76.4634C40.3534 75.4944 41.2086 74.8012 42.1992 74.8009C43.1897 74.8006 44.0456 75.4931 44.2517 76.462C44.3788 77.1229 44.9569 77.6006 45.6298 77.6009H56.1999C57.7456 77.5993 58.9982 76.3467 58.9998 74.801V66.3313C58.9983 65.6587 58.5207 65.0813 57.8603 64.9538C56.893 64.7471 56.2013 63.8932 56.1998 62.9042C56.1984 61.9152 56.8875 61.0593 57.8541 60.8496ZM22.011 50.014C23.7324 48.0054 25.9222 46.4518 28.3868 45.4907C28.7064 45.3653 29.0628 45.3721 29.3773 45.5098L32.7495 46.9734C33.0194 47.093 33.1765 47.3779 33.1333 47.67C33.067 48.1985 33.0999 48.7348 33.2304 49.2511C33.6231 50.7713 34.8307 51.9458 36.3613 52.2959C37.8919 52.646 39.49 52.1134 40.5045 50.9151C40.6912 50.6667 41.0203 50.5727 41.3098 50.6854L54.9308 56.6011H18.5828C19.2094 54.1732 20.3819 51.9203 22.011 50.014ZM57.5998 66.3313V74.801C57.5989 75.5739 56.9727 76.2002 56.1998 76.2011L45.6219 76.1765C45.2789 74.5541 43.8442 73.3951 42.1858 73.4011C40.5275 73.4071 39.1011 74.5762 38.7698 76.2011H19.7999C19.0271 76.2002 18.4008 75.5739 18.3999 74.801V58.0011H57.5882L57.5636 59.4797C55.9443 59.8282 54.7911 61.2639 54.7999 62.9202C54.8086 64.5765 55.9771 65.9999 57.5998 66.3313Z" fill="#234cad"/>
<path d="M50.5999 72.001C50.6015 73.5467 51.8541 74.7993 53.3998 74.801C54.9462 74.801 56.1998 73.5474 56.1998 72.001C56.1998 70.4546 54.9462 69.201 53.3998 69.201C51.8535 69.201 50.5999 70.4546 50.5999 72.001ZM54.7998 72.001C54.7998 72.7742 54.173 73.401 53.3998 73.401C52.6266 73.401 51.9998 72.7742 51.9998 72.001C52.0007 71.2282 52.627 70.6019 53.3998 70.601C54.173 70.601 54.7998 71.2278 54.7998 72.001Z" fill="#234cad"/>
<path d="M33.1 62.9012C30.7804 62.9012 28.9 64.7816 28.9 67.1012C28.9026 69.4198 30.7815 71.2987 33.1 71.3012C35.4196 71.3012 37.3 69.4208 37.3 67.1012C37.3 64.7816 35.4196 62.9012 33.1 62.9012ZM33.1 69.9012C31.5536 69.9012 30.3 68.6476 30.3 67.1012C30.3017 65.5555 31.5543 64.3029 33.1 64.3013C34.6464 64.3013 35.9 65.5549 35.9 67.1012C35.9 68.6476 34.6464 69.9012 33.1 69.9012Z" fill="#234cad"/>
<path d="M43.5999 60.1012C41.6669 60.1012 40.0999 61.6682 40.0999 63.6012C40.1022 65.5333 41.6678 67.099 43.5999 67.1012C45.5329 67.1012 47.0999 65.5342 47.0999 63.6012C47.0999 61.6682 45.5329 60.1012 43.5999 60.1012ZM43.5999 65.7012C42.4401 65.7012 41.4999 64.7611 41.4999 63.6012C41.5011 62.442 42.4406 61.5025 43.5999 61.5012C44.7597 61.5012 45.6999 62.4414 45.6999 63.6012C45.6999 64.7611 44.7597 65.7012 43.5999 65.7012Z" fill="#234cad"/>
<path d="M25.3999 63.601C25.3999 62.4412 24.4597 61.501 23.2999 61.501C22.1402 61.501 21.1999 62.4411 21.1999 63.601C21.2012 64.7602 22.1407 65.6997 23.2999 65.701C24.4597 65.701 25.3999 64.7608 25.3999 63.601ZM22.5999 63.601C22.6004 63.2145 22.9135 62.9013 23.2999 62.901C23.6865 62.901 23.9999 63.2144 23.9999 63.601C23.9999 63.9876 23.6865 64.3009 23.2999 64.3009C22.9133 64.3009 22.5999 63.9876 22.5999 63.601Z" fill="#234cad"/>
<path d="M24.6998 69.9011C23.5406 69.9024 22.6011 70.8419 22.5999 72.0011C22.5999 73.1609 23.54 74.1011 24.6998 74.1011C25.8596 74.1011 26.7998 73.1609 26.7998 72.0011C26.7998 70.8414 25.8596 69.9011 24.6998 69.9011ZM24.6998 72.7011C24.3132 72.7011 23.9999 72.3877 23.9999 72.0011C23.9999 71.6145 24.3133 71.3011 24.6998 71.3011C25.0863 71.3016 25.3995 71.6147 25.3998 72.0011C25.3998 72.3877 25.0864 72.7011 24.6998 72.7011Z" fill="#234cad"/>
<path d="M41.9968 70.1043C41.7162 69.8453 41.2835 69.8453 41.0028 70.1043C40.9409 70.1723 40.891 70.2505 40.8555 70.3354C40.7812 70.5049 40.7812 70.6977 40.8555 70.8672C40.9195 71.0428 41.0579 71.1812 41.2335 71.2452C41.4031 71.3199 41.5962 71.3199 41.7656 71.2452C41.8505 71.2097 41.9286 71.16 41.9967 71.0982C42.1261 70.9651 42.1988 70.787 42.1998 70.6013C42.2021 70.5096 42.1829 70.4185 42.1437 70.3354C42.1083 70.2506 42.0586 70.1724 41.9968 70.1043Z" fill="#234cad"/>
<path d="M34.4999 61.501C34.7341 61.5035 34.9536 61.3874 35.0835 61.1925C35.2135 60.9976 35.2361 60.7504 35.1438 60.5351C35.1099 60.4495 35.0601 60.3711 34.9968 60.304C34.7956 60.1051 34.4943 60.047 34.2336 60.157C34.1471 60.1892 34.0685 60.2392 34.0028 60.304C33.9409 60.372 33.891 60.4502 33.8555 60.5351C33.7635 60.7505 33.7864 60.9976 33.9163 61.1924C34.0462 61.3873 34.2657 61.5033 34.4999 61.501Z" fill="#234cad"/>
<path d="M51.2998 65.0013C51.534 65.0037 51.7535 64.8876 51.8835 64.6927C52.0134 64.4978 52.036 64.2506 51.9437 64.0353C51.8411 63.769 51.5851 63.5933 51.2996 63.5933C51.0142 63.5933 50.7582 63.769 50.6555 64.0353C50.5635 64.2507 50.5863 64.4978 50.7162 64.6926C50.8463 64.8874 51.0657 65.0035 51.2998 65.0013Z" fill="#234cad"/>
<path d="M40.5111 34.7815C39.9529 31.4699 41.5452 28.1842 44.5019 26.4309C44.545 23.5291 46.5976 20.9646 49.4972 20.1558C49.4823 19.8694 49.4968 19.5799 49.5406 19.2895C49.8107 17.5036 51.1909 15.9861 52.9725 15.5139C54.1111 15.2118 55.2947 15.3248 56.317 15.8155C57.0665 15.1686 57.9865 14.7443 58.9722 14.5997C61.5105 14.2274 63.8842 15.7196 64.5951 18.0084C64.6881 18.0127 64.7791 18.0246 64.8706 18.0322C64.9257 17.8263 64.9838 17.6226 65.0544 17.4224C65.9893 14.7652 68.0697 12.995 70.2406 13.0129C71.6656 13.0258 72.9532 13.7662 73.8317 15.0384C74.9773 14.3169 76.2138 14.0414 77.3994 14.2578C78.6637 14.4891 79.7272 15.2229 80.4751 16.3811C81.4665 17.9158 81.7775 20.0301 81.3473 22.148C82.4195 22.6497 83.2891 23.49 83.8904 24.6157C84.9013 26.5057 85.0147 28.9484 84.2028 31.3201C84.1137 31.5789 84.0131 31.8378 83.8993 32.094C85.063 32.6038 86.0065 33.4746 86.611 34.6171C87.5716 36.4299 87.6012 38.7279 86.6923 40.9194C86.2749 41.9263 85.6652 42.8722 84.9132 43.6867C85.3664 44.7913 85.3356 46.0829 84.8085 47.3252C84.0661 49.0709 82.4668 50.4085 80.6402 50.8536C78.4951 56.5457 75.2072 59.3373 69.9698 62.4232L69.9116 62.4582C69.1975 63.0448 68.3358 63.3882 67.4523 63.5178C66.9274 63.5948 66.3986 63.5927 65.8905 63.5314C65.8824 63.5299 65.8743 63.5323 65.8662 63.5308C65.862 63.5298 65.8593 63.5276 65.8555 63.5262C65.4227 63.4703 65.0043 63.374 64.6237 63.2285C62.7999 62.5305 61.8803 61.0159 62.2246 59.2766C63.2116 54.284 62.552 50.7401 60.2635 48.7455C56.3029 45.2947 48.5995 47.4156 48.5241 47.4397L47.6288 47.6927L47.4084 46.8257C47.379 46.7117 46.7137 44.0014 48.109 41.8893C48.1898 41.7669 48.2764 41.6485 48.3681 41.5348C47.8819 41.5036 47.3938 41.4286 46.9082 41.3089C43.5531 40.4872 41.0413 37.9261 40.5111 34.7815ZM79.1191 49.833L79.299 49.3274L79.8474 49.2504C79.8552 49.2493 79.8633 49.2481 79.8704 49.2471C81.2686 49.0419 82.5846 48.0161 83.1488 46.6869C83.56 45.7188 83.5284 44.7326 83.0629 43.9807L82.7018 43.3984L83.2102 42.9189C83.9932 42.1799 84.6221 41.2728 85.0277 40.2941C85.744 38.5656 85.7387 36.786 85.0111 35.4132C84.4666 34.3863 83.5763 33.7013 82.4358 33.4312L81.3226 33.1682L81.8711 32.191C82.1277 31.7328 82.34 31.2631 82.5001 30.796C83.1519 28.8914 83.0756 26.8811 82.2937 25.4194C81.7758 24.4495 80.9912 23.7873 80.0265 23.5052L79.2153 23.2671L79.4296 22.4714L79.4571 22.3847C79.9775 20.4993 79.7894 18.6034 78.9492 17.3045C78.6147 16.7864 78.0115 16.1306 77.0453 15.9543C76.1154 15.7841 75.0865 16.1475 74.1424 16.9745L73.2151 17.7886L72.7203 16.6909C72.1645 15.4601 71.2476 14.7485 70.2032 14.7398C68.8405 14.7174 67.4254 16.0509 66.7537 17.9585C66.7001 18.1117 66.652 18.2669 66.6099 18.425C66.6321 18.4329 66.651 18.445 66.673 18.4533C66.8703 18.5303 67.0634 18.6172 67.2508 18.7133C67.3635 18.7703 67.4706 18.8326 67.5788 18.8964C67.6511 18.9389 67.7222 18.9833 67.792 19.0277C68.1943 19.2833 68.5613 19.58 68.8891 19.9143C68.9135 19.9394 68.9364 19.9651 68.9608 19.9902C69.1507 20.1905 69.3251 20.4018 69.4857 20.6251C69.5255 20.6793 69.5661 20.7334 69.6041 20.7887C69.6751 20.8954 69.7415 21.0032 69.8056 21.1139C69.8735 21.2295 69.9342 21.3476 69.9937 21.4679C70.0431 21.5682 70.0918 21.6671 70.1349 21.7706C70.2109 21.9469 70.2766 22.1283 70.3343 22.3131C70.355 22.3808 70.3748 22.4476 70.394 22.5163C70.4576 22.7458 70.5117 22.979 70.547 23.2195C70.5699 23.3757 70.5857 23.5326 70.5966 23.6933C74.0468 23.7811 76.9714 26.2216 77.4666 29.5972C77.6097 30.5731 77.5325 31.5726 77.2419 32.5241C78.33 33.3573 79.0486 34.558 79.2466 35.9075C79.5425 37.9242 78.6052 39.9301 76.8815 41.0823C76.9527 41.538 77.0109 41.9833 77.0589 42.4218C77.0743 42.5649 77.0833 42.7048 77.0965 42.8468C77.1242 43.1389 77.1487 43.4308 77.1652 43.7165C77.1748 43.8801 77.1785 44.0407 77.1849 44.2016C77.1947 44.4608 77.2019 44.7188 77.2016 44.9722C77.2024 45.1378 77.1995 45.3028 77.196 45.4663C77.1913 45.7112 77.1823 45.9536 77.1686 46.1944C77.1598 46.3569 77.1493 46.5188 77.1367 46.6802C77.1174 46.9207 77.0929 47.1608 77.0652 47.3983C77.0475 47.5517 77.0301 47.7046 77.0098 47.8569C76.9748 48.1069 76.933 48.3542 76.8886 48.6003C76.8646 48.7354 76.8432 48.8717 76.8164 49.0066C76.7576 49.3038 76.6886 49.599 76.6155 49.8937C76.5954 49.9739 76.5797 50.0566 76.5588 50.137C76.4622 50.5101 76.3544 50.8826 76.2358 51.2529C76.2022 51.3581 76.1631 51.4629 76.1278 51.5676C76.0389 51.8332 75.948 52.0984 75.848 52.3641C75.7947 52.5063 75.7357 52.6493 75.6786 52.7923C75.5879 53.0211 75.4963 53.2496 75.3976 53.4777C75.3307 53.6329 75.26 53.7887 75.1903 53.9436C75.0924 54.1612 74.992 54.3787 74.8871 54.5973C74.81 54.7587 74.7305 54.92 74.6499 55.0818C74.5411 55.2991 74.4289 55.5168 74.3133 55.7359C74.2284 55.8983 74.1422 56.0606 74.0531 56.2237C73.9305 56.4472 73.8032 56.6733 73.675 56.8995C73.5835 57.0603 73.4947 57.2207 73.3994 57.3828C73.2587 57.6238 73.1106 57.8687 72.9625 58.1135C72.8722 58.2634 72.7852 58.4113 72.6919 58.5627C72.6839 58.5761 72.6759 58.5896 72.6679 58.603C75.6726 56.3792 77.666 53.9187 79.1191 49.833ZM51.3496 39.3561L51.5803 39.2836L52.4677 39.3487L52.8382 41.2174L51.9586 41.3927C50.8735 41.6066 50.1105 42.0664 49.6252 42.7955C49.0358 43.6811 48.9812 44.7916 49.0325 45.543C51.4525 45.0319 57.6651 44.1439 61.471 47.4547C64.2528 49.8745 65.0985 53.9533 63.9867 59.5783C63.7406 60.8249 64.7063 61.3936 65.3041 61.622C65.3464 61.6388 65.393 61.6465 65.4358 61.6612C66.5702 57.3015 67.1184 53.4905 67.2272 50.1649C67.2281 50.1437 67.2268 50.124 67.2282 50.1039C67.3107 47.4515 67.1201 45.1067 66.7279 43.0387C65.1862 41.1848 61.5207 41.6387 61.4836 41.6434C60.9923 41.7074 60.5442 41.3786 60.4821 40.9066C60.4206 40.4381 60.7607 40.0066 61.2454 39.9355C61.2493 39.9349 61.2524 39.9345 61.2563 39.9339C61.4012 39.9142 63.9403 39.596 66.1257 40.5112C65.6331 38.8579 65.0057 37.4214 64.3059 36.1666C64.2474 36.1158 64.1929 36.0591 64.1488 35.9917C64.0809 35.8903 64.0403 35.7792 64.0223 35.667C63.1598 34.2214 62.2042 33.0424 61.2488 32.0819C57.1515 31.8701 54.3236 33.5073 54.2608 33.5436C54.1515 33.6102 54.0342 33.65 53.9169 33.6672C53.5749 33.7174 53.2213 33.574 53.0279 33.2767C52.7677 32.874 52.8989 32.3404 53.3196 32.0855C53.4352 32.0153 55.7373 30.6519 59.2955 30.3818C57.3227 28.91 55.6971 28.3501 55.4564 28.2733C54.0795 27.8687 52.3072 28.9121 51.7394 29.3501C51.61 29.451 51.4611 29.5111 51.3075 29.5337C51.0037 29.5782 50.685 29.4715 50.4805 29.2263C50.1722 28.8567 50.2352 28.314 50.6235 28.0125C50.7163 27.9395 52.5496 26.5378 54.6265 26.4605C54.3504 25.7945 53.8702 25.2227 53.6351 24.9993C53.2827 24.669 53.2792 24.1234 53.6268 23.7804C53.9728 23.4377 54.5418 23.4258 54.894 23.7576C54.9602 23.8183 56.3426 25.1318 56.5906 26.8409C57.9938 27.4116 61.669 29.2261 64.6834 33.5138C64.8459 33.7444 65.0069 33.9944 65.1672 34.2457C67.3555 32.2993 66.5418 29.5274 66.4995 29.3935C66.3557 28.9404 66.6212 28.456 67.0942 28.3108C67.5658 28.1617 68.0692 28.4162 68.2146 28.8698C68.699 30.3805 68.7978 33.6251 66.0582 35.7775C66.9926 37.5474 67.8201 39.702 68.3607 42.3093C68.3904 42.3895 68.406 42.4691 68.4106 42.5519C68.7735 44.3819 68.9845 46.4398 69.0042 48.7243C70.0425 47.9639 70.4298 47.0173 70.454 46.9537C70.6248 46.5057 71.1361 46.2688 71.5995 46.4247C72.0653 46.5803 72.3086 47.0719 72.1406 47.5226C72.1065 47.616 71.3205 49.6593 68.971 50.7491C68.836 53.9829 68.3035 57.6538 67.2429 61.8003C67.8029 61.7105 68.3365 61.4952 68.7667 61.1401L68.7656 61.1379C68.8525 61.0647 68.9241 60.9961 68.9939 60.9265C69.0795 60.8366 69.1665 60.7481 69.2381 60.6442C69.2417 60.6391 69.2466 60.6342 69.2502 60.629L69.5635 60.1667C74.221 53.2033 76.344 48.2978 75.0193 40.8097L74.9093 40.1906L75.49 39.8945C76.8977 39.1729 77.6957 37.6758 77.4747 36.169C77.3174 35.0967 76.6743 34.1639 75.7116 33.6097L75.0618 33.2362L75.348 32.5536C75.7071 31.6949 75.8273 30.763 75.6948 29.8598C75.2869 27.0788 72.6864 25.143 69.775 25.451L68.6902 25.5658L68.7945 24.5202C68.8307 24.1613 68.8235 23.811 68.7752 23.4821C68.7368 23.2202 68.6694 22.9695 68.5854 22.7254C68.5647 22.663 68.537 22.6047 68.5138 22.5442C68.4387 22.3558 68.3528 22.1721 68.2532 21.998C68.2262 21.9495 68.1982 21.9024 68.1685 21.855C68.0397 21.6501 67.8985 21.453 67.7378 21.2726C67.7312 21.2659 67.7264 21.2578 67.7202 21.2507C67.371 20.863 66.9509 20.5404 66.4851 20.2895C66.4211 20.2553 66.3544 20.2268 66.2893 20.1954C66.1329 20.1207 65.9729 20.0562 65.8088 19.9991C65.7056 19.9637 65.6027 19.9302 65.4963 19.9022C64.9995 19.7684 64.4748 19.7026 63.9339 19.743L63.1047 19.8034L62.9884 19.0102L62.9802 18.9433C62.6971 17.2229 61.0248 16.0426 59.2226 16.307C58.4198 16.4248 57.6815 16.8331 57.1448 17.4564L56.6014 18.0876L55.9217 17.6087C55.2078 17.1053 54.3055 16.9464 53.4299 17.179C52.3336 17.4687 51.4831 18.4098 51.3158 19.5201C51.2596 19.8865 51.28 20.2479 51.3753 20.5937L51.6065 21.5314L50.6075 21.678C48.0088 22.0592 46.121 24.33 46.308 26.848L46.3492 27.4141L45.8252 27.6812C43.2403 28.9961 41.817 31.7311 42.2818 34.4873C42.6994 36.9618 44.6965 38.9823 47.3686 39.6359C48.7135 39.9633 50.016 39.8713 51.3496 39.3561Z" fill="#234cad"/>
</svg>

<svg width="60" height="60" viewBox="0 0 100 100" fill="none" xmlns="http://www.w3.org/2000/svg">
  <rect x="1" y="1" width="98" height="98" rx="14" stroke="#234cad" stroke-width="2"/>
  <path d="M57.85 60.85A1.4 1.4 0 0059 59.47V57.3v-.04a.69.69 0 00-.04-.17.49.49 0 00-.13-.24l-.04-.05a.7.7 0 00-.21-.14L41.86 49.4a2.1 2.1 0 00-2.43.6 2.8 2.8 0 01-4.92-2.15c.13-.91-.37-1.8-1.21-2.16l-3.38-1.46c-.65-.3-1.39-.3-2.05-.04a17.5 17.5 0 00-6.93 4.91 17.9 17.9 0 00-3.84 7.64l-.1.4v.08l-.01.08v17.5a2.8 2.8 0 002.8 2.8h18.97a1.4 1.4 0 001.38-1.14 2.1 2.1 0 014.1 0c.13.66.7 1.14 1.38 1.14H56.2a2.8 2.8 0 002.8-2.8v-8.47a1.4 1.4 0 00-1.14-1.38 2.1 2.1 0 010-4.1zM22.01 50.01a16.1 16.1 0 016.38-4.52 1.3 1.3 0 01.99.02l3.37 1.46c.27.12.43.4.38.7a4.2 4.2 0 007.37 3.25.7.7 0 01.81-.23l13.62 5.91H18.58c.63-2.43 1.8-4.68 3.43-6.59zM57.6 66.33v8.47c0 .77-.63 1.4-1.4 1.4l-10.58-.02a3.5 3.5 0 00-6.85.02H19.8a1.4 1.4 0 01-1.4-1.4V58h39.19l-.03 1.48a3.5 3.5 0 00.04 6.85z" fill="#234cad"/>
  <path d="M50.6 72a2.8 2.8 0 105.6 0 2.8 2.8 0 00-5.6 0zm4.2 0a1.4 1.4 0 11-2.8 0 1.4 1.4 0 012.8 0zM33.1 62.9a4.2 4.2 0 100 8.4 4.2 4.2 0 000-8.4zm0 7a2.8 2.8 0 110-5.6 2.8 2.8 0 010 5.6zM43.6 60.1a3.5 3.5 0 100 7 3.5 3.5 0 000-7zm0 5.6a2.1 2.1 0 110-4.2 2.1 2.1 0 010 4.2zM25.4 63.6a2.1 2.1 0 10-4.2 0 2.1 2.1 0 004.2 0zm-2.8 0a.7.7 0 111.4 0 .7.7 0 01-1.4 0zM24.7 69.9a2.1 2.1 0 100 4.2 2.1 2.1 0 000-4.2zm0 2.8a.7.7 0 110-1.4.7.7 0 010 1.4zM42 70.1a.73.73 0 00-1 0 .8.8 0 00-.14.24.66.66 0 000 .53c.06.17.2.31.37.38.17.07.37.07.54 0a.8.8 0 00.23-.15c.13-.13.2-.31.2-.5a.8.8 0 00-.2-.5zM34.5 61.5a.7.7 0 00.64-.96.73.73 0 00-.14-.24.7.7 0 00-.77-.14.65.65 0 00-.23.14.8.8 0 00-.14.24.7.7 0 00.64.96zM51.3 65a.7.7 0 00.64-.96.69.69 0 00-1.28 0 .7.7 0 00.64.96zM40.51 34.78a8.15 8.15 0 014-8.35 6.72 6.72 0 014.99-6.27 4.71 4.71 0 013.48-4.64 4.85 4.85 0 013.34.3 5.23 5.23 0 012.65-1.22A5.07 5.07 0 0164.6 18l.27.03.18-.6c.94-2.66 3.02-4.44 5.2-4.42a4.4 4.4 0 013.58 2.03 4.6 4.6 0 016.64 1.34c1 1.54 1.3 3.65.88 5.77a5.54 5.54 0 012.54 2.47 8.48 8.48 0 01.31 6.7c-.09.26-.19.52-.3.77a5.58 5.58 0 012.71 2.53 7.4 7.4 0 01.08 6.3 9.43 9.43 0 01-1.78 2.77 4.7 4.7 0 01-.1 3.64 6.19 6.19 0 01-4.17 3.52c-2.14 5.7-5.43 8.49-10.67 11.57l-.06.04a5 5 0 01-2.46 1.06c-.52.07-1.05.07-1.56.01h-.02-.01a5.4 5.4 0 01-1.24-.3c-1.82-.7-2.74-2.21-2.4-3.95 1-5 .33-8.54-1.96-10.53-3.96-3.46-11.66-1.33-11.74-1.31l-.9.25-.21-.86c-.03-.12-.7-2.83.7-4.94l.26-.36c-.49-.03-.98-.1-1.46-.22-3.36-.82-5.87-3.38-6.4-6.53zm38.6 15.05l.19-.5.55-.08h.02a4.38 4.38 0 003.28-2.56c.41-.97.38-1.96-.09-2.7l-.36-.6.51-.47a7.69 7.69 0 001.82-2.63c.71-1.72.7-3.5-.02-4.88a3.84 3.84 0 00-2.57-1.98l-1.12-.26.55-.98c.26-.46.47-.93.63-1.4.65-1.9.58-3.9-.2-5.37a3.76 3.76 0 00-2.27-1.91l-.81-.24.21-.8.03-.09c.52-1.88.33-3.78-.51-5.08a2.91 2.91 0 00-1.9-1.35c-.93-.17-1.96.2-2.9 1.02l-.93.82-.5-1.1c-.56-1.23-1.47-1.94-2.52-1.95-1.36-.02-2.77 1.31-3.45 3.22l-.14.46.06.03a6.23 6.23 0 012.22 1.46l.07.08c.2.2.37.41.53.64l.11.16a6.12 6.12 0 011 2.9 7.02 7.02 0 016.87 5.9 6.7 6.7 0 01-.23 2.93 5.2 5.2 0 01-.36 8.56l.18 1.34.04.43.07.87.01.48a19.86 19.86 0 01-.11 3.2l-.06.46-.12.74-.07.4-.2.9-.06.24c-.1.37-.2.74-.32 1.11l-.11.32-.28.8-.17.42-.28.69-.21.46a29.2 29.2 0 01-1.52 2.96l-.27.48-.44.73-.27.45-.02.04c3-2.22 5-4.68 6.45-8.77zM51.36 39.36l.23-.08.89.07.37 1.87-.88.17a3.42 3.42 0 00-2.33 1.4c-.6.9-.65 2-.6 2.75 2.42-.5 8.64-1.4 12.44 1.91 2.78 2.42 3.63 6.5 2.52 12.13-.25 1.24.72 1.81 1.31 2.04l.14.04a52.69 52.69 0 001.79-11.5v-.06c.08-2.65-.11-5-.5-7.06-1.54-1.86-5.2-1.4-5.25-1.4a.88.88 0 01-1-.73.88.88 0 01.77-.97c.15-.03 2.69-.34 4.88.57a21.45 21.45 0 00-1.82-4.34.81.81 0 01-.28-.5 18.51 18.51 0 00-2.78-3.59c-4.1-.21-6.93 1.43-6.99 1.46a.9.9 0 01-1.23-.27.85.85 0 01.29-1.18 14.5 14.5 0 015.98-1.7 14.23 14.23 0 00-3.84-2.12c-1.38-.4-3.15.64-3.72 1.08a.92.92 0 01-.43.18.9.9 0 01-.83-.3.84.84 0 01.14-1.22 7.88 7.88 0 014-1.55 4.75 4.75 0 00-.98-1.46.84.84 0 01-.01-1.22.92.92 0 011.26-.02 5.95 5.95 0 011.7 3.08 18.97 18.97 0 018.58 7.4c2.19-1.94 1.37-4.71 1.33-4.85a.87.87 0 01.6-1.08.9.9 0 011.11.56 6.46 6.46 0 01-2.15 6.9 24.6 24.6 0 012.35 6.78c.36 1.83.57 3.89.6 6.17a4.41 4.41 0 001.44-1.77.92.92 0 011.15-.53c.47.16.7.65.54 1.1-.03.1-.82 2.14-3.17 3.23a53.8 53.8 0 01-1.73 11.05c.56-.09 1.1-.3 1.53-.66l.22-.21c.09-.1.18-.18.25-.29l.01-.01.31-.46c4.66-6.97 6.78-11.87 5.46-19.36l-.11-.62.58-.3a3.63 3.63 0 001.98-3.72c-.15-1.07-.8-2-1.76-2.56l-.65-.37.29-.69c.36-.86.48-1.79.34-2.69-.4-2.78-3-4.72-5.91-4.4l-1.09.1.1-1.04a4.24 4.24 0 00-.2-1.8l-.08-.18a4.32 4.32 0 00-.77-1.27l-.02-.02a4.58 4.58 0 00-1.23-.96l-.2-.1a4.68 4.68 0 00-2.36-.45l-.83.06-.11-.79-.01-.07a3.28 3.28 0 00-3.76-2.63 3.4 3.4 0 00-2.08 1.15l-.54.63-.68-.48a2.97 2.97 0 00-2.49-.43 2.9 2.9 0 00-2.11 2.34c-.06.37-.04.73.06 1.07l.23.94-1 .15a4.95 4.95 0 00-4.3 5.17l.04.56-.52.27a6.45 6.45 0 00-3.55 6.8 6.6 6.6 0 005.09 5.16c1.34.32 2.65.23 3.98-.28z" fill="#234cad"/>
</svg>
